X:24
%%splittune 1
T:Dessus la grava de Bordu
O:France
A:Quercy
C:Trad.
C:Ronde note dans le manuscript de l'abb Lacoste
R:Ronde
Z:Transcrit et/ou corrig par Michel BELLON - 2007-05-25
Z:Pour toute observation mailto:galouvielle@free.fr
M:6/8
L:1/8
K:Am
EA2B | c2c cdc | B2E A2B | c2c cdc | B2  ::
E A2B | c3 B2A | B2A G3 | AAA AAA | A2 :|
%%text !! Mesure complte pour enchaner
T:De bon matin
K:Em
G | G2B B2A | A2G E2G | G2B B2A | G3 E2 ::
B | B2G A2B | c2B A2A | A2A B2A | G3 E2 :]
%%newpage
T:Dejos lo pont de lion
K:Am
E | A2B A2G | AG^F E2E | A2B A2G | A3 E2 ::
E | A2B c2c | cdc B2B | A2A B2A | G3 A2 :|
T:Quand lo postor vai amodar
K:G
BBB B2G | A2A B3 | BBB B2G | A2A B2G ::
B2A B2d | dcB A2G | B2A B2c |1  B2A G2G :|2 B2A G3 |]
%%text n X (n suffisant pour saluer et sortir)
